third_party/noto/noto_2/emoji_u1f435.svg

<svg enable-background="new 0 0 128 128" viewBox="0 0 128 128" xmlns="http://www.w3.org/2000/svg" xmlns:xlink="http://www.w3.org/1999/xlink"><ellipse cx="27.91" cy="66" rx="22.41" ry="25.14" fill="#E6B175"/><path d="m27.91 42.36c11.53 0 20.91 10.6 20.91 23.64s-9.38 23.64-20.91 23.64-20.91-10.61-20.91-23.64 9.38-23.64 20.91-23.64m0-3c-13.2 0-23.91 11.93-23.91 26.64s10.71 26.64 23.91 26.64 23.91-11.93 23.91-26.64-10.7-26.64-23.91-26.64z" fill="#8B5E3C"/><path d="m100.09 91.14c-12.36 0-22.41-11.28-22.41-25.14s10.05-25.14 22.41-25.14 22.41 11.28 22.41 25.14-10.05 25.14-22.41 25.14z" fill="#E6B175"/><path d="m100.09 42.36c11.53 0 20.91 10.61 20.91 23.64s-9.38 23.64-20.91 23.64-20.91-10.61-20.91-23.64 9.38-23.64 20.91-23.64m0-3c-13.21 0-23.91 11.93-23.91 26.64s10.71 26.64 23.91 26.64 23.91-11.93 23.91-26.64-10.71-26.64-23.91-26.64z" fill="#8B5E3C"/><linearGradient id="d" x1="64.071" x2="64.071" y1="113.87" y2="13.865" gradientUnits="userSpaceOnUse"><stop stop-color="#825C40" offset="0"/><stop stop-color="#855F41" offset=".1672"/><stop stop-color="#906746" offset=".3105"/><stop stop-color="#A2764D" offset=".4445"/><stop stop-color="#A97C50" offset=".4881"/></linearGradient><path d="m64.07 113.87c-14.34 0-26.67-5.46-35.64-15.79-8.29-9.54-12.86-22.31-12.86-35.94 0-24.03 15-48.28 48.5-48.28s48.5 24.25 48.5 48.28c0 13.63-4.57 26.39-12.86 35.94-8.97 10.33-21.3 15.79-35.64 15.79z" fill="url(#d)"/><path d="m64.07 15.36c14.34 0 26.38 4.72 34.8 13.64 7.87 8.33 12.2 20.1 12.2 33.14 0 13.27-4.44 25.68-12.49 34.95-8.68 9.99-20.61 15.27-34.51 15.27s-25.83-5.28-34.51-15.27c-8.06-9.27-12.49-21.68-12.49-34.95 0-13.04 4.33-24.81 12.2-33.14 8.42-8.92 20.46-13.64 34.8-13.64m0-3c-31.96 0-50 22.29-50 49.78s18.6 53.22 50 53.22 50-25.73 50-53.22-18.04-49.78-50-49.78z" fill="#8B5E3C"/><linearGradient id="c" x1="64.071" x2="64.071" y1="36.395" y2="109.5" gradientUnits="userSpaceOnUse"><stop stop-color="#E6B175" offset=".2592"/><stop stop-color="#E2AC70" offset=".4545"/><stop stop-color="#D59E62" offset=".6859"/><stop stop-color="#C0884A" offset=".9346"/><stop stop-color="#BD8446" offset=".9692"/></linearGradient><path d="m105.19 56.21c0-10.94-9.23-19.81-20.61-19.81-10.14 0-18.55 7.04-20.27 16.31-0.1 0-0.21-0.01-0.31-0.01h-0.17c-1.73-9.27-10.14-16.3-20.27-16.3-11.38 0-20.61 8.87-20.61 19.81 0 5.88 2.68 11.14 6.91 14.77-1.15 2.59-1.78 5.36-1.78 8.24 0 14.65 16.08 30.28 35.92 30.28s35.92-15.63 35.92-30.28c0-2.84-0.61-5.58-1.73-8.15 4.28-3.63 7-8.94 7-14.86z" fill="url(#c)"/><g fill="#404040"><ellipse cx="41.4" cy="59.01" rx="7.87" ry="8.91"/><ellipse cx="86.6" cy="59.01" rx="7.87" ry="8.91"/></g><defs><path id="b" d="m70.56 102.78c11.78-2.35 19.56-10.93 21.39-20.6 0.33-1.76-1.23-3.29-2.99-2.96-7.16 1.33-15.74 2.1-24.97 2.1s-17.8-0.77-24.96-2.1c-1.77-0.33-3.34 1.23-2.98 3 2.38 11.64 13.83 21.19 27.93 21.19 2.31 0 4.51-0.22 6.58-0.63"/></defs><clipPath id="a"><use xlink:href="#b"/></clipPath><path d="m63.99 81.32c-9.23 0-17.8-0.77-24.96-2.1-1.77-0.33-3.34 1.23-2.98 3 2.38 11.64 13.83 21.19 27.93 21.19 15.43 0 25.81-9.87 27.97-21.23 0.33-1.76-1.23-3.29-2.99-2.96-7.15 1.32-15.73 2.1-24.97 2.1z" clip-path="url(#a)" fill="#404040" stroke="#404040" stroke-miterlimit="10"/><path d="M95,78.97V70H33v8.97c9,5.65,19.91,8.8,31,8.8S86,84.62,95,78.97z" clip-path="url(#a)" fill="#fff"/><g clip-path="url(#a)"><path d="m63.99 81.32c-9.23 0-17.8-0.77-24.96-2.1-1.77-0.33-3.34 1.23-2.98 3 2.38 11.64 13.83 21.19 27.93 21.19 15.43 0 25.81-9.87 27.97-21.23 0.33-1.76-1.23-3.29-2.99-2.96-7.15 1.32-15.73 2.1-24.97 2.1z" fill="none"/></g><path d="m33 72v8.64c9 5.65 19.91 8.8 31 8.8s22-3.14 31-8.8v-8.64h-62z" clip-path="url(#a)" fill="none"/><path d="m64 95.35c-6.92 0-12.95 3.77-16.17 9.37 4.18 2.28 9.88 3.69 16.17 3.69s11.99-1.41 16.17-3.69c-3.22-5.6-9.25-9.37-16.17-9.37z" clip-path="url(#a)" fill="#FF4F4F"/><g fill="#404040"><ellipse cx="58.75" cy="70.12" rx="2.44" ry="3.91"/><ellipse cx="69.25" cy="70.12" rx="2.44" ry="3.91"/></g></svg>

<svg width="128" height="128" style="enable-background:new 0 0 128 128;" xmlns="http://www.w3.org/2000/svg" xmlns:xlink="http://www.w3.org/1999/xlink">
  <g>
    <g>
      <path d="M27.91,91.14C15.55,91.14,5.5,79.86,5.5,66s10.05-25.14,22.41-25.14S50.32,52.14,50.32,66 S40.27,91.14,27.91,91.14z" style="fill:#E6B175;"/>
      <path d="M27.91,42.36c11.53,0,20.91,10.6,20.91,23.64s-9.38,23.64-20.91,23.64S7,79.03,7,66 S16.38,42.36,27.91,42.36 M27.91,39.36C14.71,39.36,4,51.29,4,66s10.71,26.64,23.91,26.64S51.82,80.71,51.82,66 S41.12,39.36,27.91,39.36L27.91,39.36z" style="fill:#8B5E3C;"/>
    </g>
    <g>
      <path d="M100.09,91.14c-12.36,0-22.41-11.28-22.41-25.14s10.05-25.14,22.41-25.14 c12.36,0,22.41,11.28,22.41,25.14S112.45,91.14,100.09,91.14z" style="fill:#E6B175;"/>
      <path d="M100.09,42.36C111.62,42.36,121,52.97,121,66s-9.38,23.64-20.91,23.64S79.18,79.03,79.18,66 S88.56,42.36,100.09,42.36 M100.09,39.36c-13.21,0-23.91,11.93-23.91,26.64s10.71,26.64,23.91,26.64S124,80.71,124,66 S113.29,39.36,100.09,39.36L100.09,39.36z" style="fill:#8B5E3C;"/>
    </g>
  </g>
  <g>
    <linearGradient id="SVGID_1_" gradientUnits="userSpaceOnUse" x1="64.0706" x2="64.0706" y1="113.8652" y2="13.8647">
      <stop offset="0" style="stop-color:#825C40"/>
      <stop offset="0.1672" style="stop-color:#855F41"/>
      <stop offset="0.3105" style="stop-color:#906746"/>
      <stop offset="0.4445" style="stop-color:#A2764D"/>
      <stop offset="0.4881" style="stop-color:#A97C50"/>
    </linearGradient>
    <path d="M64.07,113.87c-14.34,0-26.67-5.46-35.64-15.79c-8.29-9.54-12.86-22.31-12.86-35.94 c0-24.03,15-48.28,48.5-48.28s48.5,24.25,48.5,48.28c0,13.63-4.57,26.39-12.86,35.94C90.74,108.41,78.41,113.87,64.07,113.87z" style="fill:url(#SVGID_1_);"/>
    <path d="M64.07,15.36c14.34,0,26.38,4.72,34.8,13.64c7.87,8.33,12.2,20.1,12.2,33.14 c0,13.27-4.44,25.68-12.49,34.95c-8.68,9.99-20.61,15.27-34.51,15.27s-25.83-5.28-34.51-15.27c-8.06-9.27-12.49-21.68-12.49-34.95 c0-13.04,4.33-24.81,12.2-33.14C37.69,20.08,49.73,15.36,64.07,15.36 M64.07,12.36c-31.96,0-50,22.29-50,49.78 s18.6,53.22,50,53.22s50-25.73,50-53.22S96.03,12.36,64.07,12.36L64.07,12.36z" style="fill:#8B5E3C;"/>
  </g>
  <linearGradient id="SVGID_2_" gradientUnits="userSpaceOnUse" x1="64.0706" x2="64.0706" y1="36.3953" y2="109.4957">
    <stop offset="0.2592" style="stop-color:#E6B175"/>
    <stop offset="0.4545" style="stop-color:#E2AC70"/>
    <stop offset="0.6859" style="stop-color:#D59E62"/>
    <stop offset="0.9346" style="stop-color:#C0884A"/>
    <stop offset="0.9692" style="stop-color:#BD8446"/>
  </linearGradient>
  <path d="M105.19,56.21c0-10.94-9.23-19.81-20.61-19.81c-10.14,0-18.55,7.04-20.27,16.31 c-0.1,0-0.21-0.01-0.31-0.01c-0.06,0-0.11,0-0.17,0C62.1,43.43,53.69,36.4,43.56,36.4c-11.38,0-20.61,8.87-20.61,19.81 c0,5.88,2.68,11.14,6.91,14.77c-1.15,2.59-1.78,5.36-1.78,8.24c0,14.65,16.08,30.28,35.92,30.28c19.84,0,35.92-15.63,35.92-30.28 c0-2.84-0.61-5.58-1.73-8.15C102.47,67.44,105.19,62.13,105.19,56.21z" style="fill:url(#SVGID_2_);"/>
  <g>
    <ellipse cx="41.4" cy="59.01" rx="7.87" ry="8.91" style="fill:#404040;"/>
    <ellipse cx="86.6" cy="59.01" rx="7.87" ry="8.91" style="fill:#404040;"/>
  </g>
  <g>
    <defs>
      <path id="SVGID_3_" d="M70.56,102.78c11.78-2.35,19.56-10.93,21.39-20.6c0.33-1.76-1.23-3.29-2.99-2.96 c-7.16,1.33-15.74,2.1-24.97,2.1c-9.23,0-17.8-0.77-24.96-2.1c-1.77-0.33-3.34,1.23-2.98,3c2.38,11.64,13.83,21.19,27.93,21.19 C66.29,103.41,68.49,103.19,70.56,102.78"/>
    </defs>
    <clipPath id="SVGID_4_">
      <use style="overflow:visible;" xlink:href="#SVGID_3_"/>
    </clipPath>
    <path d="M63.99,81.32 c-9.23,0-17.8-0.77-24.96-2.1c-1.77-0.33-3.34,1.23-2.98,3c2.38,11.64,13.83,21.19,27.93,21.19c15.43,0,25.81-9.87,27.97-21.23 c0.33-1.76-1.23-3.29-2.99-2.96C81.81,80.54,73.23,81.32,63.99,81.32z" style="clip-path:url(#SVGID_4_);fill:#404040;stroke:#404040;stroke-miterlimit:10;"/>
    <path d="M95,78.97V70H33v8.97c9,5.65,19.91,8.8,31,8.8S86,84.62,95,78.97z" style="clip-path:url(#SVGID_4_);fill:#FFFFFF;"/>
    <g style="clip-path:url(#SVGID_4_);">
      <path d="M63.99,81.32c-9.23,0-17.8-0.77-24.96-2.1c-1.77-0.33-3.34,1.23-2.98,3 c2.38,11.64,13.83,21.19,27.93,21.19c15.43,0,25.81-9.87,27.97-21.23c0.33-1.76-1.23-3.29-2.99-2.96 C81.81,80.54,73.23,81.32,63.99,81.32z" style="fill:none;"/>
    </g>
    <path d="M33,72v8.64c9,5.65,19.91,8.8,31,8.8c11.09,0,22-3.14,31-8.8V72H33z" style="clip-path:url(#SVGID_4_);fill:none;"/>
    <path d="M64,95.35c-6.92,0-12.95,3.77-16.17,9.37c4.18,2.28,9.88,3.69,16.17,3.69 c6.29,0,11.99-1.41,16.17-3.69C76.95,99.12,70.92,95.35,64,95.35z" style="clip-path:url(#SVGID_4_);fill:#FF4F4F;"/>
  </g>
  <g>
    <ellipse cx="58.75" cy="70.12" rx="2.44" ry="3.91" style="fill:#404040;"/>
    <ellipse cx="69.25" cy="70.12" rx="2.44" ry="3.91" style="fill:#404040;"/>
  </g>
</svg>
